!!!ONB: MCCC : IJB0064_07 : Extracted Monophonic Melody
!!!COM: Bach, Johann Sebastian
!!!OPR: Cello Suite No.2
!!!OMV: 7
!!!SCT: BWV 1008
!!!ODT: 1717///
**kern
*thru
*staff1
*IP1
*clefF4
*k[b-]
*d:
*M3/8
*>A
8A
=1
4D
8B-
=2
4C#
8G
=3
16F
16E
16F
16G
8A
=4
4D
8d
=5
16E
16F
8G
8B-
=6
16C
16D
8E
8c
=7
16A
16G
16A
16B-
16c
16A
=8
4F
8A
=9
8BB
8G
8C#
=10
8D
16F
16C
16BB-
16AA
=11
8GG
8E-
8AA
=12
8BB-
16D
16AA
16GG
16FF
=13
8EE
8C#
8B-
=14
8A
16G
16F
16E
16D
=15
16E
16F
16G
16E
16F
16D
=16
8E
8AA
8c
=17
16c
16d
16e-
16c
16d
16A
=18
4B-
8B-
=19
16B-
16c
16d
16B-
16c
16G
=20
4A
8A
=21
16B
16c
16d
16B
16c
16A
=22
16d
16e
16f
16d
16e
16c
=23
16B
16c
16d
16B
16c
16A
=24
4e
8G#
=25
16A
16B
16c
16A
16d
16B
=26
16A
16B
16c
16A
16d
16B
=27
16A
16B
16c
16A
16d
16B
=28
16A
16B
16c
16A
16d
16B
=29
8f
16e
16d
16c
16B
=30
16CC
16e
16d
16c
16B
16G#
=31
16A
16F
16E
16D
16E
16C#
=32
4AA
*>A
8A
=1
4D
8B-
=2
4C#
8G
=3
16F
16E
16F
16G
8A
=4
4D
8d
=5
16E
16F
8G
8B-
=6
16C
16D
8E
8c
=7
16A
16G
16A
16B-
16c
16A
=8
4F
8A
=9
8BB
8G
8C#
=10
8D
16F
16C
16BB-
16AA
=11
8GG
8E-
8AA
=12
8BB-
16D
16AA
16GG
16FF
=13
8EE
8C#
8B-
=14
8A
16G
16F
16E
16D
=15
16E
16F
16G
16E
16F
16D
=16
8E
8AA
8c
=17
16c
16d
16e-
16c
16d
16A
=18
4B-
8B-
=19
16B-
16c
16d
16B-
16c
16G
=20
4A
8A
=21
16B
16c
16d
16B
16c
16A
=22
16d
16e
16f
16d
16e
16c
=23
16B
16c
16d
16B
16c
16A
=24
4e
8G#
=25
16A
16B
16c
16A
16d
16B
=26
16A
16B
16c
16A
16d
16B
=27
16A
16B
16c
16A
16d
16B
=28
16A
16B
16c
16A
16d
16B
=29
8f
16e
16d
16c
16B
=30
16CC
16e
16d
16c
16B
16G#
=31
16A
16F
16E
16D
16E
16C#
=32
4AA
*>B
8c
=33
4F
8d
=34
4E
8B-
=35
16A
16G
16A
16B-
8c
=36
4F
8A
=37
16D
16E
16F
16D
16C
16BB
=38
16G
16A
16G
16F
16E
16D
=39
16E
16D
16E
16F
16G
16E
=40
4C
8E
=41
16F#
16G
16A
16C
16BB-
16AA
=42
16BB-
16D
16G
16BB-
16AA
16GG
=43
16FF#
16AA
16C
16E-
16D
16C
=44
16BB-
16AA
16BB-
16D
16G
16B-
=45
16A-
16G
16A-
16F#
16G
16e-
=46
8D
8G
8F#
=47
16G
16E-
16D
16C
16D
16BB-
=48
4GG
8B-
=49
16B-
16F
16G
16E
16F
16D
=50
16C
16D
16E
16C
16D
16BB-
=51
16AA
16BB-
16C
16AA
16BB-
16GG
=52
4FF
8A
=53
16A
16E
16F
16D
16E
16C
=54
16BB-
16C
16D
16BB-
16C
16AA
=55
16GG
16AA
16BB-
16GG
16AA
16FF
=56
4EE
8G
=57
16AA
16BB
16C#
16D
16E
16G
=58
16F
16G
16A
16c#
16d
16F
=59
16E
16F
16G
16A
16B-
16D
=60
16C#
16D
16E
16AA
16BB-
16GG
=61
16D
16E
16F
16D
16G
16E
=62
16D
16E
16F
16D
16G
16E
=63
16D
16E
16F
16D
16G
16E
=64
16D
16E
16F
16D
16G
16E
=65
16C#
16B-
16A
16G
16F
16E
=66
16FF
16A
16G
16F
16E
16C#
=67
16D
16BB-
16AA
16GG
16AA
16FF
=68
16DD
16AA
16D
16E
16F
16D
=69
16E-
16F
16G
16E-
16F
16D
=70
16G
16A
16B-
16G
16A
16F
=71
16E-
16F
16G
16E-
16F
16D
=72
4c#
16d
16c
=73
16B-
16A
16G
16F
16E
16D
=74
16C#
16BB
16AA
16GG
16FF
16EE
=75
16DD
16FF
16AA
16D
16F
16A
=76
4d
*>B
8c
=33
4F
8d
=34
4E
8B-
=35
16A
16G
16A
16B-
8c
=36
4F
8A
=37
16D
16E
16F
16D
16C
16BB
=38
16G
16A
16G
16F
16E
16D
=39
16E
16D
16E
16F
16G
16E
=40
4C
8E
=41
16F#
16G
16A
16C
16BB-
16AA
=42
16BB-
16D
16G
16BB-
16AA
16GG
=43
16FF#
16AA
16C
16E-
16D
16C
=44
16BB-
16AA
16BB-
16D
16G
16B-
=45
16A-
16G
16A-
16F#
16G
16e-
=46
8D
8G
8F#
=47
16G
16E-
16D
16C
16D
16BB-
=48
4GG
8B-
=49
16B-
16F
16G
16E
16F
16D
=50
16C
16D
16E
16C
16D
16BB-
=51
16AA
16BB-
16C
16AA
16BB-
16GG
=52
4FF
8A
=53
16A
16E
16F
16D
16E
16C
=54
16BB-
16C
16D
16BB-
16C
16AA
=55
16GG
16AA
16BB-
16GG
16AA
16FF
=56
4EE
8G
=57
16AA
16BB
16C#
16D
16E
16G
=58
16F
16G
16A
16c#
16d
16F
=59
16E
16F
16G
16A
16B-
16D
=60
16C#
16D
16E
16AA
16BB-
16GG
=61
16D
16E
16F
16D
16G
16E
=62
16D
16E
16F
16D
16G
16E
=63
16D
16E
16F
16D
16G
16E
=64
16D
16E
16F
16D
16G
16E
=65
16C#
16B-
16A
16G
16F
16E
=66
16FF
16A
16G
16F
16E
16C#
=67
16D
16BB-
16AA
16GG
16AA
16FF
=68
16DD
16AA
16D
16E
16F
16D
=69
16E-
16F
16G
16E-
16F
16D
=70
16G
16A
16B-
16G
16A
16F
=71
16E-
16F
16G
16E-
16F
16D
=72
4c#
16d
16c
=73
16B-
16A
16G
16F
16E
16D
=74
16C#
16BB
16AA
16GG
16FF
16EE
=75
16DD
16FF
16AA
16D
16F
16A
=76
4d
==
*-
